comment-edit.svg

<svg fill="currentColor" viewBox="0 0 24 24"><path d="M20 2H4c-1.11 0-2 .89-2 2v12a2 2 0 0 0 2 2h4v3c0 .55.45 1 1 1h.5c.25 0 .5-.1.7-.29L13.9 18H20c1.1 0 2-.9 2-2V4a2 2 0 0 0-2-2M9.08 15H7v-2.09l6.17-6.19 2.07 2.08zm7.76-7.8-1.01 1.01-2.07-2.03 1.01-1.02c.2-.21.54-.22.78 0l1.29 1.25c.21.21.22.55 0 .79"/></svg>

<svg  viewBox="0 0 24 24" fill="currentColor"><path  d="M20 2H4C2.89 2 2 2.89 2 4V16C2 17.11 2.9 18 4 18H8V21C8 21.55 8.45 22 9 22H9.5C9.75 22 10 21.9 10.2 21.71L13.9 18H20C21.1 18 22 17.1 22 16V4C22 2.89 21.1 2 20 2M9.08 15H7V12.91L13.17 6.72L15.24 8.8L9.08 15M16.84 7.2L15.83 8.21L13.76 6.18L14.77 5.16C14.97 4.95 15.31 4.94 15.55 5.16L16.84 6.41C17.05 6.62 17.06 6.96 16.84 7.2Z"/></svg>
